X: 710
T: THE ONE-LEGGED MAN
M:6/8
L:1/8
B:O'NEILL'S 710
N:"collected by F. O'Neill"
Z:Transcribed by A. LEE WORMAN
K:D
A2 d dcB|AFA AFA|dfd ege|fdB B2 A|
A2 d dcB|ABA AFA|dcd eag|fdd d2:|
||f/g/|afd cBA|BGG G2 g/a/|bge dcB|cAA A2 A|
A2 d dcB|ABA AFA|dcd eag|fdd d2:|


